X: 27076
T: Miss Johnson Of Pitworth
R: reel
M: 4/4
K: Gdorian
B2dB AFFA|B2(d/c/)B fB(d/c/)B|Afcf AFFe|dDAF {F}G2GA|
B2dB AFFA|B2(d/c/)B fB(d/c/)B|AfcB AFFe|dDAF {F}G2Ga|
g2bg dgbg|(ef)af cfaf|g2bg dgbg|^fgaf g2ga|
gbdb caBg|fdcB AFFA|GABc dcBg|BGAF {F}G2GA|

